X:1
T:Devil’s Dream
L:1/8
M:4/4
I:linebreak $
K:A
V:1 treble
V:1
 "A" agae agae | agae fedc | "Bm"dfBf dfBf | dfBf "E"agfe |$
 "A" agae agae | agae fedc | "D"dfed "A"cABA |"E"  EAAG "A" A2 e2 ::$
 "A" ceAe ceAe | ceAe fedc | "Bm"dfBf dfBf | dBdf "E"agfe |$
 "A" ceAe ceAe | cAce fedc | "D" dfed "A"cABA |"E" EAAG "A"A2 e2 :|
